assets/fc/fc-factory-breakdown.svg

<svg xmlns="http://www.w3.org/2000/svg" width="100%" height="100%" viewBox="0 0 48 48"><path fill="#E64A19" d="M29 23v-6l-8 4v2h-4v4h-4v-4H5v20h28V23z"/><path fill="#992B0A" d="M25 27h4v4h-4zM9 35h4v4H9zM25 35h4v4h-4zM17 35h4v4h-4zM17 27h4v4h-4z"/><path fill="#BF360C" d="M41.2 5H38v2h-2v2h-2.3L32 43h11z"/></svg>

<svg xmlns="http://www.w3.org/2000/svg" width="100%" height="100%" viewBox="0 0 48 48"><path fill="#E64A19" d="M29 23L29 17 21 21 21 23 17 23 17 27 13 27 13 23 5 23 5 43 33 43 33 23z"/><path fill="#992B0A" d="M25 27H29V31H25zM9 35H13V39H9zM25 35H29V39H25zM17 35H21V39H17zM17 27H21V31H17z"/><path fill="#BF360C" d="M41.2 5L38 5 38 7 36 7 36 9 33.7 9 32 43 43 43z"/></svg>
